svg/exchange.svg

<?xml version="1.0" encoding="UTF-8"?>
<svg xmlns="http://www.w3.org/2000/svg" xmlns:xlink="http://www.w3.org/1999/xlink" width="32" height="32" viewBox="0 0 32 32">
<path fill-rule="nonzero" fill="rgb(0%, 0%, 0%)" fill-opacity="1" d="M 9.558594 2.558594 C 7.683594 2.558594 6.207031 3.25 5.378906 4.519531 C 4.699219 5.570312 4.546875 6.917969 4.980469 8.179688 C 4.832031 8.433594 4.753906 8.765625 4.800781 9.179688 C 4.898438 10.03125 5.21875 10.4375 5.519531 10.640625 C 5.660156 11.253906 5.980469 11.96875 6.339844 12.378906 L 6.339844 12.460938 C 6.34375 12.835938 6.351562 13.171875 6.320312 13.582031 C 6.109375 14.015625 5.4375 14.296875 4.679688 14.621094 C 3.304688 15.210938 1.425781 16.015625 1.28125 18.519531 C 1.273438 18.695312 1.335938 18.867188 1.457031 18.996094 C 1.578125 19.125 1.746094 19.199219 1.921875 19.199219 L 30.078125 19.199219 C 30.253906 19.203125 30.421875 19.128906 30.539062 19 C 30.664062 18.871094 30.730469 18.699219 30.71875 18.519531 C 30.574219 16.011719 28.574219 15.210938 27.121094 14.621094 C 26.34375 14.304688 25.613281 13.992188 25.398438 13.558594 C 25.367188 13.148438 25.378906 12.835938 25.378906 12.460938 L 25.378906 12.359375 C 25.734375 11.949219 26.023438 11.253906 26.160156 10.640625 C 26.460938 10.4375 26.800781 10.03125 26.898438 9.179688 C 26.949219 8.84375 26.890625 8.503906 26.738281 8.199219 C 27.054688 7.34375 27.039062 5.957031 26.519531 4.898438 C 26.082031 4.011719 25.355469 3.480469 24.441406 3.359375 L 24.21875 2.921875 C 24.109375 2.703125 23.886719 2.5625 23.640625 2.558594 C 21.765625 2.558594 20.285156 3.253906 19.460938 4.519531 C 18.777344 5.570312 18.648438 6.917969 19.082031 8.179688 C 18.902344 8.480469 18.832031 8.832031 18.878906 9.179688 C 18.980469 10.03125 19.296875 10.441406 19.601562 10.640625 C 19.738281 11.257812 20.058594 11.96875 20.417969 12.378906 L 20.417969 12.460938 C 20.421875 12.835938 20.433594 13.167969 20.398438 13.582031 C 20.191406 14.015625 19.515625 14.296875 18.761719 14.621094 C 17.835938 15.015625 16.683594 15.515625 15.980469 16.558594 C 15.238281 15.511719 14.019531 15.019531 13.039062 14.621094 C 12.265625 14.304688 11.535156 13.992188 11.320312 13.558594 C 11.289062 13.152344 11.296875 12.835938 11.300781 12.460938 L 11.300781 12.359375 C 11.652344 11.949219 11.941406 11.253906 12.078125 10.640625 C 12.382812 10.4375 12.71875 10.03125 12.820312 9.179688 C 12.867188 8.84375 12.8125 8.503906 12.660156 8.199219 C 12.972656 7.339844 12.960938 5.957031 12.441406 4.898438 C 12.003906 4.011719 11.277344 3.480469 10.359375 3.359375 L 10.140625 2.921875 C 10.03125 2.703125 9.804688 2.5625 9.558594 2.558594 M 26.820312 21.738281 L 26.738281 21.761719 C 26.5 21.804688 26.304688 21.976562 26.238281 22.210938 C 26.175781 22.445312 26.246094 22.691406 26.417969 22.859375 L 28.519531 24.960938 L 19.78125 24.960938 C 19.425781 24.976562 19.15625 25.277344 19.171875 25.628906 C 19.1875 25.980469 19.488281 26.253906 19.839844 26.238281 L 28.519531 26.238281 L 26.417969 28.339844 C 26.296875 28.460938 26.226562 28.628906 26.226562 28.800781 C 26.226562 29.0625 26.386719 29.300781 26.628906 29.402344 C 26.871094 29.5 27.148438 29.445312 27.339844 29.261719 L 30.441406 26.140625 C 30.492188 26.105469 30.539062 26.066406 30.582031 26.019531 L 30.582031 26 C 30.621094 25.957031 30.652344 25.910156 30.679688 25.859375 L 30.679688 25.839844 C 30.6875 25.828125 30.695312 25.8125 30.699219 25.800781 L 30.699219 25.78125 C 30.707031 25.761719 30.714844 25.738281 30.71875 25.71875 C 30.730469 25.652344 30.730469 25.585938 30.71875 25.519531 L 30.71875 25.460938 C 30.714844 25.445312 30.707031 25.433594 30.699219 25.421875 L 30.699219 25.398438 L 30.679688 25.359375 L 30.679688 25.339844 C 30.671875 25.324219 30.664062 25.3125 30.660156 25.300781 L 30.640625 25.28125 C 30.609375 25.230469 30.578125 25.183594 30.539062 25.140625 L 30.519531 25.140625 L 30.480469 25.101562 L 27.339844 21.941406 C 27.207031 21.796875 27.015625 21.722656 26.820312 21.738281 M 5.039062 21.761719 C 4.894531 21.777344 4.761719 21.839844 4.660156 21.941406 L 1.5 25.082031 C 1.480469 25.089844 1.464844 25.105469 1.460938 25.121094 L 1.460938 25.140625 C 1.429688 25.164062 1.402344 25.191406 1.378906 25.21875 L 1.378906 25.242188 L 1.335938 25.28125 L 1.335938 25.300781 C 1.292969 25.367188 1.269531 25.441406 1.261719 25.519531 L 1.261719 25.539062 C 1.257812 25.574219 1.257812 25.605469 1.261719 25.640625 L 1.261719 25.660156 C 1.269531 25.761719 1.300781 25.859375 1.359375 25.941406 L 1.378906 25.960938 C 1.386719 25.972656 1.394531 25.984375 1.398438 26 L 1.421875 26.019531 L 1.460938 26.058594 C 1.492188 26.101562 1.535156 26.136719 1.582031 26.160156 L 4.660156 29.261719 C 4.917969 29.492188 5.3125 29.480469 5.554688 29.238281 C 5.800781 28.992188 5.8125 28.597656 5.582031 28.339844 L 3.480469 26.238281 L 12.160156 26.238281 C 12.390625 26.242188 12.605469 26.121094 12.722656 25.921875 C 12.835938 25.722656 12.835938 25.476562 12.722656 25.277344 C 12.605469 25.078125 12.390625 24.957031 12.160156 24.960938 L 3.480469 24.960938 L 5.578125 22.859375 C 5.785156 22.667969 5.839844 22.363281 5.71875 22.109375 C 5.59375 21.855469 5.316406 21.714844 5.039062 21.761719 M 14.71875 24.960938 C 14.363281 24.960938 14.078125 25.246094 14.078125 25.601562 C 14.078125 25.957031 14.363281 26.242188 14.71875 26.242188 C 15.074219 26.242188 15.359375 25.957031 15.359375 25.601562 C 15.359375 25.246094 15.074219 24.960938 14.71875 24.960938 M 17.28125 24.960938 C 17.042969 24.949219 16.820312 25.066406 16.695312 25.269531 C 16.546875 25.515625 16.578125 25.832031 16.777344 26.042969 C 16.976562 26.253906 17.289062 26.304688 17.542969 26.167969 C 17.800781 26.035156 17.933594 25.746094 17.871094 25.464844 C 17.8125 25.183594 17.570312 24.976562 17.28125 24.960938 "/>
</svg>

<svg role="img" viewBox="0 0 32 32" height="32" width="32" xmlns="http://www.w3.org/2000/svg"><path d="M9.559 2.559c-1.875 0-3.352.691-4.18 1.96-.68 1.051-.832 2.399-.399 3.66-.148.255-.226.587-.18 1 .098.852.419 1.258.72 1.462.14.613.46 1.328.82 1.738v.082c.004.375.012.71-.02 1.121-.21.434-.883.715-1.64 1.04-1.375.589-3.254 1.394-3.399 3.898a.653.653 0 0 0 .176.476.64.64 0 0 0 .465.203h28.156A.606.606 0 0 0 30.54 19a.629.629 0 0 0 .18-.48c-.145-2.508-2.145-3.31-3.598-3.899-.777-.316-1.508-.629-1.723-1.062-.03-.41-.02-.723-.02-1.098v-.102c.356-.41.645-1.105.782-1.718.3-.203.64-.61.738-1.461a1.64 1.64 0 0 0-.16-.98c.317-.856.301-2.243-.218-3.302-.438-.886-1.165-1.418-2.079-1.539l-.222-.437a.658.658 0 0 0-.578-.363c-1.875 0-3.356.695-4.18 1.96-.684 1.051-.813 2.399-.379 3.66-.18.301-.25.653-.203 1 .101.852.418 1.262.723 1.462.136.617.457 1.328.816 1.738v.082c.004.375.016.707-.02 1.121-.207.434-.882.715-1.636 1.04-.926.394-2.078.894-2.782 1.937-.742-1.047-1.96-1.54-2.94-1.938-.774-.316-1.505-.629-1.72-1.062-.03-.407-.023-.723-.02-1.098v-.102c.352-.41.641-1.105.778-1.718.305-.203.64-.61.742-1.461a1.67 1.67 0 0 0-.16-.98c.313-.86.3-2.243-.219-3.302-.437-.886-1.164-1.418-2.082-1.539l-.218-.437a.664.664 0 0 0-.582-.363m17.261 19.18-.082.023a.634.634 0 0 0-.5.449.665.665 0 0 0 .18.648l2.102 2.102H19.78a.638.638 0 1 0 .059 1.277h8.68l-2.102 2.102a.657.657 0 0 0-.191.46c0 .262.16.5.402.602.242.098.52.043.71-.14l3.102-3.121a.824.824 0 0 0 .141-.121V26c.04-.043.07-.09.098-.14v-.02a.183.183 0 0 0 .02-.04v-.019a.384.384 0 0 0 .019-.062.569.569 0 0 0 0-.2v-.058c-.004-.016-.012-.027-.02-.04v-.023l-.02-.039v-.02c-.007-.015-.015-.026-.019-.038l-.02-.02a.922.922 0 0 0-.1-.14h-.02l-.04-.04-3.14-3.16a.636.636 0 0 0-.52-.203m-21.78.024a.628.628 0 0 0-.38.18l-3.16 3.14a.076.076 0 0 0-.04.04v.019a.522.522 0 0 0-.081.078v.023l-.043.04v.019a.487.487 0 0 0-.074.219v.02a.441.441 0 0 0 0 .1v.02a.571.571 0 0 0 .097.281l.02.02a.122.122 0 0 1 .02.039l.023.02.039.039a.382.382 0 0 0 .121.101l3.078 3.102a.653.653 0 0 0 .922-.922L3.48 26.238h8.68a.64.64 0 0 0 .563-.316.654.654 0 0 0 0-.645.64.64 0 0 0-.563-.316H3.48l2.098-2.102a.644.644 0 0 0 .14-.75.64.64 0 0 0-.679-.347m9.68 3.199a.641.641 0 1 0 0 1.282.641.641 0 0 0 0-1.282m2.562 0a.647.647 0 0 0-.586.309.642.642 0 1 0 .586-.309"/></svg>
